assets/icons/qvision/layers_clear.svg

<svg xmlns="http://www.w3.org/2000/svg" height="24" viewBox="0 0 24 24" width="24"><path d="M0 0h24v24H0z" fill="none"/><path d="M19.81 14.99l1.19-.92-1.43-1.43-1.19.92 1.43 1.43zm-.45-4.72L21 9l-9-7-2.91 2.27 7.87 7.88 2.4-1.88zM3.27 1L2 2.27l4.22 4.22L3 9l1.63 1.27L12 16l2.1-1.63 1.43 1.43L12 18.54l-7.37-5.73L3 14.07l9 7 4.95-3.85L20.73 21 22 19.73 3.27 1z"/></svg>

<svg width="24" height="24" viewBox="0 0 24 24" fill="none" xmlns="http://www.w3.org/2000/svg">
<g clip-path="url(#clip0_147_5355)">
<path d="M19.81 14.99L21 14.07L19.57 12.64L18.38 13.56L19.81 14.99ZM19.36 10.27L21 9L12 2L9.09 4.27L16.96 12.15L19.36 10.27ZM3.27 1L2 2.27L6.22 6.49L3 9L4.63 10.27L12 16L14.1 14.37L15.53 15.8L12 18.54L4.63 12.81L3 14.07L12 21.07L16.95 17.22L20.73 21L22 19.73L3.27 1Z" fill="#323232"/>
</g>
<defs>
<clipPath id="clip0_147_5355">
<rect width="24" height="24" fill="white"/>
</clipPath>
</defs>
</svg>
